Adwaita++-Dark/actions/22/go-top.svg

<svg fill="none" height="22" viewBox="0 0 22 22" width="22" xmlns="http://www.w3.org/2000/svg">
  <g fill="#e6ddff">
    <path d="m18.9997 4.5v2.66662h-15.9997v-2.66662z"/>
    <path d="m11.0001 7.91661-7.62484 7.62489c-.26116.2611-.375.6175-.375.9583v1.3333h1.33332c.34082 0 .69716-.1139.95831-.375l5.70821-5.7082 5.7083 5.7082c.2611.2612.6175.375.9583.375h1.3333v-1.3333c0-.3408-.1139-.6972-.375-.9583z"/>
  </g>
</svg>

<svg xmlns="http://www.w3.org/2000/svg" fill="none" width="22" height="22" viewBox="0 0 22 22">
 <path fill="#E6DDFF" d="M18.9997 4.5V7.16662H3V4.5H18.9997Z"/>
 <path fill="#E6DDFF" d="M11.0001 7.91661L3.37526 15.5415C3.1141 15.8026 3.00026 16.159 3.00026 16.4998V17.8331H4.33358C4.6744 17.8331 5.03074 17.7192 5.29189 17.4581L11.0001 11.7499L16.7084 17.4581C16.9695 17.7193 17.3259 17.8331 17.6667 17.8331H19V16.4998C19 16.159 18.8861 15.8026 18.625 15.5415L11.0001 7.91661Z"/>
</svg>
